lib/brands/icons/invision.svg

<svg xmlns="http://www.w3.org/2000/svg" fill="none" aria-hidden="true" viewBox="0 0 48 48"><g id="invision-Icon"><g id="Group"><path id="Vector" fill="#FF0066" d="M42 6H6V42H42V6Z"/><g id="Union"><path fill="white" d="M20.2889 15.4956C20.2999 16.6344 19.3887 17.5681 18.2499 17.5848C17.6965 17.5909 17.1635 17.3759 16.7693 16.9873C16.3751 16.5988 16.1523 16.069 16.1504 15.5155C16.1505 14.3766 17.0709 13.4519 18.2097 13.4464C19.3486 13.441 20.2778 14.3568 20.2889 15.4956Z"/><path fill="white" d="M13.7115 30.2165C13.7157 29.6933 13.778 29.1722 13.8973 28.6627L15.4741 22.2302H13.0361L13.7763 19.4942H19.64L17.3245 28.68C17.1942 29.1401 17.1216 29.6146 17.1085 30.0926C17.1085 30.683 17.3965 30.8544 17.8486 30.9566C18.1237 31.0185 20.3182 30.9753 21.5134 28.32L23.0341 22.2374H20.563L21.3046 19.5014H26.5822L25.904 22.6061C26.8299 20.8766 28.6817 19.2336 30.5033 19.2336C32.4488 19.2336 34.0544 20.6189 34.0544 23.2742C34.0511 24.037 33.9366 24.7952 33.7145 25.5249L32.7253 29.0745C32.6362 29.3865 32.5845 29.708 32.5712 30.0321C32.5712 30.6499 32.8203 30.9581 33.2825 30.9581C33.7448 30.9581 34.3309 30.6182 35.0105 28.7347L36.3685 29.2603C35.5664 32.0697 34.1149 33.2419 32.2933 33.2419C30.1635 33.2419 29.1454 31.9747 29.1454 30.2467C29.143 29.7244 29.2157 29.2046 29.3614 28.703L30.3795 25.0613C30.4872 24.7007 30.5392 24.3258 30.5336 23.9496C30.5336 22.776 29.8237 22.0661 28.6817 22.0661C27.2302 22.0661 26.2741 23.1072 25.7801 25.1145L23.803 33.0345H20.347L20.9677 30.5433C19.9525 32.2137 18.5398 33.2477 16.7989 33.2477C14.6993 33.2477 13.7115 32.0381 13.7115 30.2165Z"/></g></g></g></svg>

<svg xmlns="http://www.w3.org/2000/svg" fill="none" aria-hidden="true" viewBox="0 0 48 48"><path fill="#F06" d="M42 6H6v36h36V6Z"/><path fill="#fff" d="M20.289 15.496a2.07 2.07 0 0 1-2.04 2.089 2.076 2.076 0 0 1-2.099-2.07 2.07 2.07 0 0 1 4.139-.02Zm-6.578 14.72a7.064 7.064 0 0 1 .186-1.553l1.577-6.433h-2.438l.74-2.736h5.864l-2.316 9.186c-.13.46-.202.935-.216 1.413 0 .59.288.761.74.864.276.061 2.47.018 3.665-2.637l1.521-6.083h-2.471l.742-2.736h5.277l-.678 3.105c.926-1.73 2.778-3.372 4.6-3.372 1.945 0 3.55 1.385 3.55 4.04a7.846 7.846 0 0 1-.34 2.25l-.989 3.55a4.1 4.1 0 0 0-.154.958c0 .618.25.926.712.926.462 0 1.048-.34 1.727-2.223l1.358.525c-.802 2.81-2.253 3.982-4.075 3.982-2.13 0-3.148-1.267-3.148-2.995a5.444 5.444 0 0 1 .216-1.544l1.018-3.642c.108-.36.16-.735.155-1.111 0-1.174-.71-1.884-1.852-1.884-1.452 0-2.408 1.041-2.902 3.049l-1.977 7.92h-3.456l.62-2.492c-1.014 1.67-2.427 2.705-4.168 2.705-2.1 0-3.088-1.21-3.088-3.031Z"/></svg>
